src/assets/images/icons/icon-star-empty.svg

<svg width="21" height="19" viewBox="0 0 21 19" fill="none" xmlns="http://www.w3.org/2000/svg">
<path d="M20.6367 7.24L13.4467 6.63L10.6367 0L7.82666 6.63L0.636658 7.24L6.09666 11.97L4.45666 19L10.6367 15.27L16.8167 19L15.1767 11.97L20.6367 7.24ZM13.2267 12.42L13.7867 14.83L11.6667 13.55L10.6367 12.93L9.60666 13.55L7.48666 14.83L8.04666 12.42L8.31666 11.24L7.40666 10.45L5.52666 8.82L7.99666 8.61L9.19666 8.51L9.66666 7.4L10.6367 5.13L11.6067 7.42L12.0767 8.53L13.2767 8.63L15.7467 8.84L13.8667 10.47L12.9567 11.26L13.2267 12.42Z" fill="#163860"/>
</svg>

<svg xmlns="http://www.w3.org/2000/svg" width="21" height="19" fill="none"><path fill="#163860" d="m20.637 7.24-7.19-.61L10.637 0l-2.81 6.63-7.19.61 5.46 4.73L4.457 19l6.18-3.73 6.18 3.73-1.64-7.03 5.46-4.73Zm-7.41 5.18.56 2.41-2.12-1.28-1.03-.62-1.03.62-2.12 1.28.56-2.41.27-1.18-.91-.79-1.88-1.63 2.47-.21 1.2-.1.47-1.11.97-2.27.97 2.29.47 1.11 1.2.1 2.47.21-1.88 1.63-.91.79.27 1.16Z"/></svg>
